X:103
T:Red Haired Boy
M:4/4
L:1/8
R:hornpipe
K:A
AF|"A"E2A2 ABcd|"A"efec "D"d2cd|"A"e2A2 ABcA|"G"BAEF =G2FG|
"A"E2A2 ABcd|"A"efec "D"d2cd|"A"eaag "E7"afed|"A"c2A2 A2:|
|:ef|"G"=gfef gfef|"G"=gfec "D"d2cd|"A"e2A2 ABcA|"G"BAEF =G2FG|
"A"E2A2 ABcd|"A"efec "D"d2cd|"A"eaag "E7"afed|"A"c2A2 A2:|
